svg/endPortalFrameTop.svg

<?xml version="1.0" encoding="UTF-8" standalone="no"?>
<!-- Created with Inkscape (http://www.inkscape.org/) -->

<svg
   width="32"
   height="32"
   viewBox="0 0 8.4666666 8.4666668"
   version="1.1"
   id="svg5"
   inkscape:version="1.2 (dc2aeda, 2022-05-15)"
   sodipodi:docname="endPortalFrameTop.svg"
   xmlns:inkscape="http://www.inkscape.org/namespaces/inkscape"
   xmlns:sodipodi="http://sodipodi.sourceforge.net/DTD/sodipodi-0.dtd"
   xmlns="http://www.w3.org/2000/svg"
   xmlns:svg="http://www.w3.org/2000/svg"
   xmlns:rdf="http://www.w3.org/1999/02/22-rdf-syntax-ns#"
   xmlns:cc="http://creativecommons.org/ns#">
  <sodipodi:namedview
     id="namedview7"
     pagecolor="#ffffff"
     bordercolor="#111111"
     borderopacity="1"
     inkscape:pageshadow="0"
     inkscape:pageopacity="0"
     inkscape:pagecheckerboard="1"
     inkscape:document-units="mm"
     showgrid="true"
     width="32mm"
     units="px"
     objecttolerance="10000"
     guidetolerance="10000"
     inkscape:snap-perpendicular="true"
     inkscape:snap-tangential="true"
     inkscape:zoom="34.90625"
     inkscape:cx="13.736795"
     inkscape:cy="18.435094"
     inkscape:window-width="2560"
     inkscape:window-height="1301"
     inkscape:window-x="0"
     inkscape:window-y="25"
     inkscape:window-maximized="0"
     inkscape:current-layer="layer1"
     inkscape:showpageshadow="0"
     inkscape:deskcolor="#d1d1d1">
    <inkscape:grid
       type="xygrid"
       id="grid9"
       units="px"
       empspacing="4" />
  </sodipodi:namedview>
  <defs
     id="defs2" />
  <g
     inkscape:label="Layer 1"
     inkscape:groupmode="layer"
     id="layer1">
    <path
       id="ellipse12491"
       style="fill:#000000;fill-opacity:1;stroke:none;stroke-width:0"
       d="M 0 0 L 0 0.52916667 L 0.30592448 0.83509115 A 1.8520833 1.8520833 0 0 0 0 1.8520833 L 0 6.6145833 A 1.8520833 1.8520833 0 0 0 0.30592448 7.6315755 L 0 7.9375 L 0 8.4666667 L 0.52916667 8.4666667 L 0.83509115 8.1607422 A 1.8520833 1.8520833 0 0 0 1.8520833 8.4666667 L 6.6626424 8.4666667 L 6.6626424 8.4651164 A 1.8520833 1.8520833 0 0 0 7.6320923 8.161259 L 7.9375 8.4666667 L 8.4666667 8.4666667 L 8.4666667 7.9375 L 8.1597087 7.630542 A 1.8520833 1.8520833 0 0 0 8.4666667 6.6145833 L 8.4666667 1.8520833 A 1.8520833 1.8520833 0 0 0 8.1617757 0.83405762 L 8.4666667 0.52916667 L 8.4666667 0 L 7.9375 0 L 7.632609 0.30489095 A 1.8520833 1.8520833 0 0 0 6.6626424 0.00051676432 L 6.6626424 0 L 1.8520833 0 A 1.8520833 1.8520833 0 0 0 0.83509115 0.30592448 L 0.52916667 0 L 0 0 z M 2.38125 1.0583333 L 6.0854167 1.0583333 A 1.3229146 1.3229167 0 0 1 7.4083333 2.38125 L 7.4083333 6.0854167 A 1.3229157 1.3229146 0 0 1 6.0854167 7.4083333 L 2.38125 7.4083333 A 1.3229167 1.3229157 0 0 1 1.0583333 6.0854167 L 1.0583333 2.38125 A 1.3229167 1.3229167 0 0 1 2.38125 1.0583333 z " />
  </g>
  <metadata
     id="metadata33">
    <rdf:RDF>
      <cc:Work
         rdf:about="">
        <cc:license
           rdf:resource="http://creativecommons.org/licenses/by-sa/4.0/" />
      </cc:Work>
      <cc:License
         rdf:about="http://creativecommons.org/licenses/by-sa/4.0/">
        <cc:permits
           rdf:resource="http://creativecommons.org/ns#Reproduction" />
        <cc:permits
           rdf:resource="http://creativecommons.org/ns#Distribution" />
        <cc:requires
           rdf:resource="http://creativecommons.org/ns#Notice" />
        <cc:requires
           rdf:resource="http://creativecommons.org/ns#Attribution" />
        <cc:permits
           rdf:resource="http://creativecommons.org/ns#DerivativeWorks" />
        <cc:requires
           rdf:resource="http://creativecommons.org/ns#ShareAlike" />
      </cc:License>
    </rdf:RDF>
  </metadata>
</svg>

<svg width="32" height="32" viewBox="0 0 8.467 8.467" xmlns="http://www.w3.org/2000/svg"><path style="fill:#000;fill-opacity:1;stroke:none;stroke-width:0" d="M0 0v.53l.306.305A1.852 1.852 0 0 0 0 1.852v4.763a1.852 1.852 0 0 0 .306 1.017L0 7.938v.529h.53l.305-.306a1.852 1.852 0 0 0 1.017.306h4.81v-.002a1.852 1.852 0 0 0 .97-.304l.306.306h.529v-.53l-.307-.306a1.852 1.852 0 0 0 .307-1.016V1.852A1.852 1.852 0 0 0 8.162.834L8.467.53V0h-.53l-.304.305A1.852 1.852 0 0 0 6.663 0V0h-4.81A1.852 1.852 0 0 0 .834.306L.53 0H0zm2.381 1.058h3.704a1.323 1.323 0 0 1 1.323 1.323v3.704a1.323 1.323 0 0 1-1.323 1.323H2.381a1.323 1.323 0 0 1-1.323-1.323V2.381a1.323 1.323 0 0 1 1.323-1.323z"/></svg>
